src/images/clock.svg

<svg width="32" height="32" viewBox="0 0 32 32" fill="none" xmlns="http://www.w3.org/2000/svg">
<path d="M15.987 3C8.811 3 3 8.824 3 16C3 23.176 8.811 29 15.987 29C23.176 29 29 23.176 29 16C29 8.824 23.176 3 15.987 3ZM21.2 21.2C21.0797 21.3205 20.9369 21.4161 20.7796 21.4814C20.6223 21.5466 20.4538 21.5802 20.2835 21.5802C20.1132 21.5802 19.9447 21.5466 19.7874 21.4814C19.6301 21.4161 19.4873 21.3205 19.367 21.2L15.09 16.923C14.9672 16.8026 14.8694 16.659 14.8025 16.5006C14.7356 16.3421 14.7007 16.172 14.7 16V10.8C14.7 10.085 15.285 9.5 16 9.5C16.715 9.5 17.3 10.085 17.3 10.8V15.467L21.2 19.367C21.707 19.874 21.707 20.693 21.2 21.2Z" fill="#F9B700"/>
</svg>

<svg width="32" height="32" fill="none" xmlns="http://www.w3.org/2000/svg"><path d="M15.987 3C8.811 3 3 8.824 3 16s5.811 13 12.987 13C23.176 29 29 23.176 29 16S23.176 3 15.987 3ZM21.2 21.2a1.296 1.296 0 0 1-1.833 0l-4.277-4.277A1.3 1.3 0 0 1 14.7 16v-5.2c0-.715.585-1.3 1.3-1.3.715 0 1.3.585 1.3 1.3v4.667l3.9 3.9a1.295 1.295 0 0 1 0 1.833Z" fill="#F9B700"/></svg>
